X:59
T:Balanafag. RH.059
R:Jig
S:Rev.R.Harrison’s MS,c1815,Cumbria
O:England
A:Temple Sowerby,Cumbria
Z:vmp.Simon Wilson. Review PJH, 2008.
M:6/8
L:1/8
Q:3/8=120
K:Bm
c|dcB cAF|ABA ABc|dcB cAF|Fff edc|!
dcB cAF|ABA ABc|def eac|dBBB2:|!
|:g|afa afg|afg a2g|fbb fbb|fbc’ d’c’b|!
afg afg|afg a2c|def eac|dBBB2:|

